static/images/team/johana/tribal.svg

<svg width="161" height="136" viewBox="0 0 161 136" fill="none" xmlns="http://www.w3.org/2000/svg">
<g clip-path="url(#clip0)">
<path d="M5.56011 54.54C8.39011 54.54 10.3601 54.54 12.7401 54.54C12.7401 50.71 12.5301 46.94 12.8501 43.21C12.9701 41.77 13.4801 39.07 15.0701 39.05C16.5001 39.03 17.0001 41.46 17.1701 42.77C17.6701 46.53 17.7501 50.35 18.0201 54.47C19.5401 54.59 20.9601 54.69 23.0301 54.85C23.0301 50.61 22.8301 46.67 23.1401 42.77C23.2501 41.34 23.7801 38.62 25.3601 38.63C26.9701 38.64 27.5401 41.42 27.5901 42.85C27.9301 53.82 27.9301 64.8 28.1701 75.78C28.5301 92.07 29.0001 108.36 29.4301 124.66C29.4501 125.33 29.4201 126 29.5101 126.65C30.7501 136 30.7601 136.02 21.0401 136C16.0501 135.99 11.0601 135.87 6.07011 135.86C2.64011 135.86 1.27011 134.76 1.28011 130.82C1.33011 107.7 1.05011 84.57 0.780114 61.45C0.710114 55.2 0.140114 48.96 0.190114 42.72C0.200114 41.15 0.790114 38.06 2.56011 38.03C4.19011 38.01 4.67011 40.8 4.86011 42.29C5.34011 46.21 5.34011 50.19 5.56011 54.54ZM13.5901 130.61C13.5901 110.79 13.5901 91.5 13.5901 72.11C10.6101 72.11 8.56011 72.11 6.70011 72.11C6.70011 91.52 6.70011 110.58 6.70011 130.03C9.23011 130.24 11.3401 130.42 13.5901 130.61ZM19.4501 72.55C19.4501 91.38 19.3701 109.61 19.6201 127.84C19.6401 129.07 22.0801 130.26 23.3901 131.48C23.3901 112.08 23.3801 93.83 23.4001 75.58C23.4001 71.99 21.3401 72.01 19.4501 72.55ZM12.8201 66.22C12.8201 63.85 12.8201 62.09 12.8201 60.25C10.4101 60.25 8.22011 60.25 5.76011 60.25C5.86011 62.24 5.94011 63.84 6.04011 65.72C8.37011 65.89 10.4401 66.05 12.8201 66.22ZM22.9101 67.21C22.9101 64.59 22.9101 62.5 22.9101 60.18C21.1701 60.18 19.6301 60.18 18.1201 60.18C18.1201 62.55 18.1201 64.59 18.1201 66.71C19.7901 66.88 21.1001 67.02 22.9101 67.21Z" fill="#FCDCD9"/>
<path d="M48.58 10.11C48.27 15.47 48.31 19.75 47.68 23.93C47.34 26.16 47.11 29.69 44.86 30.35C42.49 31.04 40.22 28.07 38.74 26.25C34.35 20.84 30.59 14.93 26.45 9.32003C26.37 9.35003 26.37 9.35003 26.29 9.37003C26.22 14.79 26.45 20.23 26.2 25.65C26.12 27.29 26.22 29.83 24.65 30.52C22.95 31.26 20.8 29.41 19.67 28.14C14.95 22.88 10.53 17.34 5.80997 11.67C5.80997 17.16 6.02997 22.23 5.67997 27.25C5.56997 28.78 4.69997 31.65 2.94997 31.67C1.28997 31.7 0.30997 28.98 0.23997 27.58C-0.0700303 20.93 -0.0800302 14.26 0.16997 7.61003C0.22997 6.04003 1.51997 3.42003 2.56997 3.25003C4.20997 2.98003 6.61997 3.91003 7.82997 5.17003C11.04 8.52003 13.81 12.3 16.7 15.94C17.81 17.34 18.79 18.85 21.12 20.14C21.12 16.1 20.92 12.05 21.21 8.03003C21.34 6.25003 22.54 3.05003 23.15 3.08003C25.41 3.17003 28.27 3.71003 29.73 5.21003C33.52 9.15003 36.68 13.69 40.1 17.98C40.48 18.45 40.9 18.89 42.05 20.17C42.4 14.44 42.51 9.70003 43.08 5.02003C43.27 3.47003 44.39 1.15003 45.55 0.820028C46.84 0.460028 49.13 1.56003 50.16 2.74003C54.31 7.50003 58.14 12.54 63.13 18.77C63.13 13.75 62.84 10.06 63.25 6.45003C63.47 4.51003 63.72 0.840028 65.78 0.850028C67.66 0.860028 67.9 4.22003 68.06 5.99003C68.55 11.62 68.82 17.29 68.72 22.93C68.68 24.82 68.39 27.9 66.47 28.57C64.75 29.17 62.89 27.15 61.75 25.87C57.46 21.06 53.46 16.01 48.58 10.11Z" fill="#FCDCD9"/>
<path d="M117.49 61.8C116.99 60.07 116.2 58.35 116.06 56.59C115.78 52.95 115.68 49.27 115.82 45.62C115.94 42.45 114.69 40.94 111.54 40.95C89.74 40.99 67.94 41.03 46.14 41.09C45.71 41.09 45.2801 41.35 45.2401 41.37C50.42 46.88 55.66 52.36 60.76 57.97C61.62 58.92 62.61 60.7 62.26 61.58C61.74 62.88 60.08 64.58 58.88 64.6C51.91 64.73 44.92 64.51 37.95 64.13C37.17 64.09 35.9201 62.38 35.8301 61.37C35.2401 54.25 34.66 47.11 34.71 39.98C34.72 38.7 37.61 36.41 39.25 36.34C48.37 35.94 57.5201 36.16 66.6601 36.01C79.9401 35.78 93.21 35.02 106.48 35.2C122.19 35.42 119.89 35.52 120.84 49.23C121.02 51.88 121.07 54.58 120.79 57.21C120.62 58.8 119.71 60.31 119.13 61.85C118.61 61.82 118.05 61.81 117.49 61.8ZM53.35 59.13C53.46 58.75 53.57 58.37 53.68 58C49.4 53.98 45.13 49.97 39.9 45.06C40.4 50.37 40.76 54.25 41.16 58.58C45.29 58.77 49.32 58.95 53.35 59.13Z" fill="#FCDCD9"/>
<path d="M75.13 52.95C75.26 51.43 77.33 48.98 78.7 48.84C85.46 48.14 92.29 48.09 99.09 47.79C103.16 47.61 105.18 49.13 105.14 53.6C105.05 64.21 105.46 74.83 105.28 85.43C105.26 86.65 102.88 88.82 101.54 88.85C93.73 89.08 85.91 88.85 78.09 88.69C74.99 88.63 74.38 86.52 74.41 83.88C74.49 78.89 74.69 58.24 75.13 52.95ZM92.17 53.66C92.17 63.75 92.17 73.46 92.17 83.32C94.66 83.32 96.87 83.32 99.48 83.32C99.48 73.19 99.48 63.38 99.48 53.66C96.79 53.66 94.53 53.66 92.17 53.66ZM86.5 83.74C86.5 73.4 86.5 63.83 86.5 54C84.42 54 82.37 54 80.1 54C80.1 63.83 80.1 73.38 80.1 83.29C82.1 83.44 83.84 83.56 86.5 83.74Z" fill="#FCDCD9"/>
<path d="M153.41 0.070027C155.06 0.070027 156.76 0.120027 158.33 0.560027C159.05 0.760027 159.93 1.93003 159.95 2.68003C159.97 3.40003 159.1 4.60003 158.4 4.80003C156.66 5.29003 154.8 5.52003 152.98 5.53003C128.33 5.59003 103.69 5.60003 79.0401 5.61003C78.0401 5.61003 76.8801 5.85003 76.0801 5.44003C74.9101 4.84003 72.9901 4.21003 72.9601 2.85003C72.9301 1.47003 74.8901 0.230027 75.9701 0.140027C79.4301 -0.169973 82.9501 0.130027 86.4501 0.140027C96.6101 0.160027 141.25 0.030027 153.41 0.070027Z" fill="#FCDCD9"/>
<path d="M77.5999 29.25C76.0499 29.23 72.9999 28.63 72.9699 26.88C72.9399 25.07 76.1099 24.3 77.6899 24.28C103.5 24.06 129.31 24 155.12 24.12C156.78 24.13 160.09 24.95 160.08 26.86C160.07 28.78 156.74 29.51 155.05 29.54C142.06 29.77 90.4199 29.44 77.5999 29.25Z" fill="#FCDCD9"/>
<path d="M77.52 18.03C76 18.01 72.98 17.31 72.99 15.58C73 13.78 76.14 13.1 77.72 13.09C103.81 12.89 129.9 12.85 155.99 12.95C157.36 12.96 160.05 13.82 160.1 15.44C160.16 17.22 157.23 18.42 155.78 18.43C147.81 18.48 139.83 18 131.86 17.83C126.71 17.72 90.48 18.23 77.52 18.03Z" fill="#FCDCD9"/>
<path d="M50.73 75.6C46.58 75.6 42.42 75.81 38.3 75.47C37.08 75.37 34.86 74.31 34.84 72.83C34.82 71.46 36.91 70.27 37.96 70.26C46.9 70.2 55.84 70.37 64.78 70.69C65.69 70.72 67.48 71.78 67.43 72.97C67.37 74.33 65.3 75.25 64.16 75.32C59.7 75.6 55.22 75.43 50.74 75.43C50.73 75.49 50.73 75.55 50.73 75.6Z" fill="#FCDCD9"/>
</g>
<defs>
<clipPath id="clip0">
<rect width="160.1" height="136" fill="white"/>
</clipPath>
</defs>
</svg>

<svg width="161" height="136" fill="none" xmlns="http://www.w3.org/2000/svg"><g clip-path="url(#clip0)" fill="#FCDCD9"><path d="M5.56 54.54h7.18c0-3.83-.21-7.6.11-11.33.12-1.44.63-4.14 2.22-4.16 1.43-.02 1.93 2.41 2.1 3.72.5 3.76.58 7.58.85 11.7 1.52.12 2.94.22 5.01.38 0-4.24-.2-8.18.11-12.08.11-1.43.64-4.15 2.22-4.14 1.61.01 2.18 2.79 2.23 4.22.34 10.97.34 21.95.58 32.93.36 16.29.83 32.58 1.26 48.88.02.67-.01 1.34.08 1.99 1.24 9.35 1.25 9.37-8.47 9.35-4.99-.01-9.98-.13-14.97-.14-3.43 0-4.8-1.1-4.79-5.04.05-23.12-.23-46.25-.5-69.37C.71 55.2.14 48.96.19 42.72c.01-1.57.6-4.66 2.37-4.69 1.63-.02 2.11 2.77 2.3 4.26.48 3.92.48 7.9.7 12.25zm8.03 76.07v-58.5H6.7v57.92c2.53.21 4.64.39 6.89.58zm5.86-58.06c0 18.83-.08 37.06.17 55.29.02 1.23 2.46 2.42 3.77 3.64 0-19.4-.01-37.65.01-55.9 0-3.59-2.06-3.57-3.95-3.03zm-6.63-6.33v-5.97H5.76c.1 1.99.18 3.59.28 5.47 2.33.17 4.4.33 6.78.5zm10.09.99v-7.03h-4.79v6.53c1.67.17 2.98.31 4.79.5zm25.67-57.1c-.31 5.36-.27 9.64-.9 13.82-.34 2.23-.57 5.76-2.82 6.42-2.37.69-4.64-2.28-6.12-4.1-4.39-5.41-8.15-11.32-12.29-16.93-.08.03-.08.03-.16.05-.07 5.42.16 10.86-.09 16.28-.08 1.64.02 4.18-1.55 4.87-1.7.74-3.85-1.11-4.98-2.38-4.72-5.26-9.14-10.8-13.86-16.47 0 5.49.22 10.56-.13 15.58-.11 1.53-.98 4.4-2.73 4.42-1.66.03-2.64-2.69-2.71-4.09-.31-6.65-.32-13.32-.07-19.97.06-1.57 1.35-4.19 2.4-4.36 1.64-.27 4.05.66 5.26 1.92 3.21 3.35 5.98 7.13 8.87 10.77 1.11 1.4 2.09 2.91 4.42 4.2 0-4.04-.2-8.09.09-12.11.13-1.78 1.33-4.98 1.94-4.95 2.26.09 5.12.63 6.58 2.13 3.79 3.94 6.95 8.48 10.37 12.77.38.47.8.91 1.95 2.19.35-5.73.46-10.47 1.03-15.15.19-1.55 1.31-3.87 2.47-4.2 1.29-.36 3.58.74 4.61 1.92 4.15 4.76 7.98 9.8 12.97 16.03 0-5.02-.29-8.71.12-12.32.22-1.94.47-5.61 2.53-5.6 1.88.01 2.12 3.37 2.28 5.14.49 5.63.76 11.3.66 16.94-.04 1.89-.33 4.97-2.25 5.64-1.72.6-3.58-1.42-4.72-2.7-4.29-4.81-8.29-9.86-13.17-15.76zm68.91 51.69c-.5-1.73-1.29-3.45-1.43-5.21-.28-3.64-.38-7.32-.24-10.97.12-3.17-1.13-4.68-4.28-4.67-21.8.04-43.6.08-65.4.14-.43 0-.86.26-.9.28 5.18 5.51 10.42 10.99 15.52 16.6.86.95 1.85 2.73 1.5 3.61-.52 1.3-2.18 3-3.38 3.02-6.97.13-13.96-.09-20.93-.47-.78-.04-2.03-1.75-2.12-2.76-.59-7.12-1.17-14.26-1.12-21.39.01-1.28 2.9-3.57 4.54-3.64 9.12-.4 18.27-.18 27.41-.33 13.28-.23 26.55-.99 39.82-.81 15.71.22 13.41.32 14.36 14.03.18 2.65.23 5.35-.05 7.98-.17 1.59-1.08 3.1-1.66 4.64-.52-.03-1.08-.04-1.64-.05zm-64.14-2.67c.11-.38.22-.76.33-1.13L39.9 45.06c.5 5.31.86 9.19 1.26 13.52 4.13.19 8.16.37 12.19.55z"/><path d="M75.13 52.95c.13-1.52 2.2-3.97 3.57-4.11 6.76-.7 13.59-.75 20.39-1.05 4.07-.18 6.09 1.34 6.05 5.81-.09 10.61.32 21.23.14 31.83-.02 1.22-2.4 3.39-3.74 3.42-7.81.23-15.63 0-23.45-.16-3.1-.06-3.71-2.17-3.68-4.81.08-4.99.28-25.64.72-30.93zm17.04.71v29.66h7.31V53.66h-7.31zM86.5 83.74V54h-6.4v29.29c2 .15 3.74.27 6.4.45zM153.41.07c1.65 0 3.35.05 4.92.49.72.2 1.6 1.37 1.62 2.12.02.72-.85 1.92-1.55 2.12-1.74.49-3.6.72-5.42.73-24.65.06-49.29.07-73.94.08-1 0-2.16.24-2.96-.17-1.17-.6-3.09-1.23-3.12-2.59-.03-1.38 1.93-2.62 3.01-2.71 3.46-.31 6.98-.01 10.48 0 10.16.02 54.8-.11 66.96-.07zM77.6 29.25c-1.55-.02-4.6-.62-4.63-2.37-.03-1.81 3.14-2.58 4.72-2.6 25.81-.22 51.62-.28 77.43-.16 1.66.01 4.97.83 4.96 2.74-.01 1.92-3.34 2.65-5.03 2.68-12.99.23-64.63-.1-77.45-.29zm-.08-11.22c-1.52-.02-4.54-.72-4.53-2.45.01-1.8 3.15-2.48 4.73-2.49 26.09-.2 52.18-.24 78.27-.14 1.37.01 4.06.87 4.11 2.49.06 1.78-2.87 2.98-4.32 2.99-7.97.05-15.95-.43-23.92-.6-5.15-.11-41.38.4-54.34.2zM50.73 75.6c-4.15 0-8.31.21-12.43-.13-1.22-.1-3.44-1.16-3.46-2.64-.02-1.37 2.07-2.56 3.12-2.57 8.94-.06 17.88.11 26.82.43.91.03 2.7 1.09 2.65 2.28-.06 1.36-2.13 2.28-3.27 2.35-4.46.28-8.94.11-13.42.11-.01.06-.01.12-.01.17z"/></g><defs><clipPath id="clip0"><path fill="#fff" d="M0 0H160.1V136H0z"/></clipPath></defs></svg>
